X:1
T:Studio Ghibli Duet
T:Studio Ghibli Duet
%%score 1 2
L:1/8
Q:1/4=100
M:4/4
K:G
V:1 treble nm="Oboe" snm="Ob."
V:2 treble nm="Flute" snm="Fl."
V:1
"^A Town with an Ocean View" z bag gfef | agfg d'3 c' | b3 a a3 g | a4 b4 | z8 | %5
!mp! (EB)(gB) (DB)(fB) | CGeG B,GdG | (FE)(CE) (DA)(dA) | Ab-ag fgab |!mf! g2 z .B f2 z .B | %10
 (e2 d).c .d3 .G | (Ac).e.g (ab).f.d | e4 z4 | z e/-^d/ ec/-B/ cA/-G/ A2 | %14
 z d/-c/ dB/-A/ BG/-F/ G2 | z c/-B/ cA/-G/ AF/-^E/ F2 | z B/c/ B/A/G/F/ G2 z2 | %17
 z e/-^d/ ec/-B/ c(A/G/) D/E/D/E/ | Fd/-c/ dB/-A/ B(G/F/) C/D/C/D/ | %19
 Ec/-B/ cA/-G/ A(F/E/) ^D/E/D/E/ | ^DB/c/ B/A/G/F/ G z G/F/E/D/ | %21
[K:Bb][M:3/4]!f!"^Merry Go Round of Life" D2 G2 B2 | E/4G/4B/4d/4- d3 d2 | c2 B2 A2 | B6 | G6 | %26
!mp! B4 B2 | (B2 (B2) B2) | F6 | F6 | d4 d2 | _d2 e2 =d2 | (A4 A2) | (A4 A2) | c2 B2 c2 | %35
 d2 c2 G2 |[Q:1/4=160]!mp! G2 d2 d2 | D2 d2 d2 | G2 d2 d2 | D2 d2 e2 | C2 e2 e2 | D2 f2 f2 | %42
 G2 f2 f2 | G2 f2 f2 | G2 f2 f2 | F2 f2 f2 | B2 f2 f2 |!f! A2 d2 f2 | a4 g2 | f2 e2 f2 | g4 f2 | %51
 =e4 d2 | c2 B2 c2 | d2 c2 G2 | A6 | D2 G2 B2 | d4 d2 | c2 B2 A2 | %58
[K:F][M:4/4][Q:1/4=84]!mf! B6 C2- | C8 |"^Mononoke Hime" DAAG A3 A | c2 G4 z2 | DAAG A3 A | %63
 c4 z2 Ac | dddd d3 d | c2 G2 A2 z2 | GGGA G2 D2 | A6 z2 |!p! D8 | z2 e2 c2 G2 | B8 | Acdc E4 | %72
 F4 G4 | ECEc FCFA | z D F2 z D B2 | z CEA BAEC |!f! ddde d3 d | f2 e2 A2 z2 | G2 c2 A2 GA | %79
 eeef e3 c |!p! d4 c4 | B4 c4- |[M:2/4] c4 |[M:4/4] G4 A4 | d2 DF B4 | G4 A4 | B8 |!pp! e8- | %88
[K:C][Q:1/4=78]"^One Summer's Day\n" e8- | e8 | e8 | e6- e!mf!A/B/ | cccc c3 A/B/ | %93
 cccc B c2 A/B/ | cccc c g2 f/_e/ | d4 z4 |!p! FcFA EBE^G | AEAc G2 G2 |!p! FcFA EBE^G | %99
 AEAc ecae | DAD^F AFcA | F8 | c8 | Gdfa z!mp! abe | c'c'd'c' b2 eg | aagf g3!mf! G | %106
!p! GFF_E F2 CF | G3 _A G2!mp! ab | c'c'd'c' b2 eg | aagf g3 g | gff_e f2 g_a | _b_aag a2 (3gab | %112
 c'4 z2!p! GC | DDF_A cADA | GDGc d4 | z8 |[Q:1/4=110]"^Kimi o Nosete" A2 c2 e2 c2 | E2 G2 B4 | %118
 F2 A2 c2 A2 | C2 E2 G4 | D2 F2 A2 F2 | A2 C2 E4 | B2 ^d2 F2 d2 | E2 G2 B4 | A2 E2 A2 E2 | %125
 E2 B2 e4 | F2 C2 F2 C2 | C2 G2 c4 | D2 A2 d2 A2 | A2 E2 A2 E2 | F2 c2 E2 A2 | A2 e2 a4 | %132
 C2 G2 c2 G2 | G2 D2 B4 | A2 E2 A2 E2 | E2 B2 e4 |!mf! AB c2 Bc d2 | c3 G G4 | f2 e2 d2 c2 | e8 | %140
 e6 e2 | a4 g4 | e2 dc- c2 c2 | d2 cd d2 g2 | e6 e2 | a4 g4 | e2 dc- c2 c2 | d2 cd d2 B2 | A6 z2 |] %149
V:2
 z bag gfef | agfg d'3 c' | b3 a a3 g | f4 f4 | B6 z!mf! .B | g2 z .B f2 z .B | e2 dc d3 G | %7
 (Ac).e.g (fd).B.A | B6 z .B |!mp! (eB)(gB) (F^d)(bd) | (Ge)(ce) (^Ge)(ce) | (AE)(CE) (BF)(DF) | %12
 E4 z4 | B z B z c z c/B/A/G/ | F z A z B z B/A/G/F/ | E z G z A z A/G/F/E/ | %16
 F z F z GF/A/ B/A/G/F/ | Ee'/-^d'/ e'c'/-b/ c'a/-g/ a/b/a/g/ | fd'/-c'/ d'b/-a/ b(g/f/) g/a/g/f/ | %19
 ec'/-b/ c'a/-g/ a(f/e/) f/g/f/e/ | ^db/c'/ b/a/g/f/ gB E/D/C/B,/ |[K:Bb][M:3/4]!f! z6 | %22
 E/4G/4B/4d/4- d3 E2 | (^F2 D2) D2 | G6 | z2 z G Bd | g4 g2 | g2 f2 e2 | f6 | z2 z G Bd | a4 g2 | %31
 f2 e2 f2 | (g4 f2) | (e4 d2) | D2 D2 D2 | A2 G4 | A2 z4 | z6 | z6 | d2 g2 b2 | d'4 d'2 | %41
 c'2 b2 a2 | b6 | g2 b2 d'2 | g'4 g'2 | g'2 f'2 e'2 | f'6 |!mp! F2 f2 f2 | F2 a2 g2 | A2 g2 f2 | %50
 D2 g2 f2 | C2 e2 d2 | B2 d2 d2 | A2 e2 e2 | D2 g2 g2 | D2 c2 f2 | C2 e2 e2 | D2 g2 g2 | %58
[K:F][M:4/4] G2 g2 g2 A2- | A8 | z!pp! DED A4 | z DED A4 | z DED A4 | z CDC G4 | z BcB G4 | %65
 z CEc z CFc | z BDC G4 | A4 E4 |!f! DAAG A3 c | G6 z2 | DAAG A A2 A | c4 z2 Ac | d2 dd d3 d | %73
 c2 G2 A2 z2 | GGGA G D2 F- |!mp! F6 z2 | d3 d d4 | A3 A A4 | G3 G G4 | A3 A A4 |!f! f2 e2 A2 z A | %81
 d>c- cB c4 |[M:2/4] z2 Ac |[M:4/4] d2 f2 e A2 c | d4 z2 Ac | d2 f2 e A2 c | d8 |!pp! F8 | %88
[K:C] z!mf! eee edea | ed/d/- d6 | z!mf! ddd dcdg | dcBc- c3 z |!p! F4 F4 | d4 c4 | _A4 F4 | %95
 _A4 e2 f2 |!mf! g g2 g gfed | de/c/- c2 z2 z e/f/ | gggg gfed | de- e4 cd | e3 A c4 | %101
 E2 F2 D2 cd | e3 A c4 | A4!pp! d'4 | AEcE GEBE | FCAC Ec G2 | c4 c4 | _e4 d4 | AEcE GEBE | %109
 FCAC ECGC | _EGcG DFcF | _DF_BF CEBE | Fc_Ac _Ec!mf!_a_b | c'4 z c'bc' | d'4 z gc'b | c'6 ab | %116
 c'3 b c'2 e'2 | b4 z2 e2 | a3 g a2 c'2 | g4 z2 fe | f3 e f2 c'2 | e4 z c'c'c' | b3 ^f f2 b2 | %123
 b4 z2 ab | c'3 b c'2 e'2 | b4 z2 ee | a3 g a2 c'2 | g4 z2 e2 | f2 c'b- b2 c'2 | d'2 e'(c' c'4) | %130
 c'b a2 b2 ^g2 | a6 c'd' | e'3 d' e'2 g'2 | d'4 z2 gg | c'3 b c'2 e'2 | e'6 z2 |!p! F2 c2 F2 c2 | %137
 E2 c2 E2 c2 | D2 A2 D2 A2 | E2 B2 E2 B2 | E8 | A2 e2 G2 d2 | F2 c2 F2 c2 | G2 D2 G2 D2 | %144
 C2 A2 c4 | A2 e2 G2 d2 | F2 c2 F2 c2 | G2 D2 G2 D2 | A2 e2 A4 |] %149

